X:4805
T:Polska fr Bjrkedet, Jmtland
A:Jmtland
C:e. Kristian Oscarsson
M:3/4
O:Sweden
R:Polska
Z:Richard Robinson 
%%TUNEURL: http://www.leeds.ac.uk/music/Info/RRTuneBk/gettune/000007e3.html
%%ID:000007e3
K:D
A2 a3f|{a}g>f d3 f|"tr"f>e e>d e>f |1\
(3gag (3fed e>c :|2 (3gag (3fed (3cBc| d2 d4::
A>^G A>B A>=G|F<E D>g f>e|(3def (3gag (3fed\
|1 cc/c/ cB/B/ BA/A/ :|2 (3cBc d2 d2:|
